!!! OTL: Berkowitz136
!!! Chapter: 1
!!! Section: I
!!! Page: 31
!!! Mode: 
!!! Encoder: DJB
**kern
*staff1
*I"Piano
=1-
*clefF4
*k[f#c#g#d#a#]
*B:
*M3/4
4F#\
4D#\
4BB/
=2
4.AA#/
8BB/
8C#/L
8D#/J
=3
4.E\
8D#\
8E\L
8F#\J
=4
4E\
4D#\
4r
=5
4B\
4F#\
4D#\
=6
4.C#/
8D#\
8E\L
8F#\J
=7
4G#\
4F#\
4E\
=8
4D#\
4r
4F#\
=9
4B\
4F#\
4D#\
=10
!!linebreak:original
4.C#/
8D#\
8E\L
8F#\J
=11
4G#\
4E\
4AA#/
=12
2.BB/
==
*-
